X: 6
T: Connaught-Man's Rambles
B: NEFR #6
M: 6/8
L: 1/8
R: jig
K: D
G |\
"D"FAA dAA | "G"BAB "A7"dAG | "D"FGA "Bm"dfe | "G"dBB "A7"BAG |\
"D"FAA dAA | "G"BAB "D"def | "Em"gfe "Bm"dfe | "G"dBB "(A7)"BA ::
g |\
"Bm"fbb faa | "D"fed "A7"deg | "Bm"fbb faa | "(D)"fed "A7"e2g |\
"Bm"fbb faa | "D"fed def | "G"gfe "D"dfe | "Bm"dBB "(A7)"BA :|
